X: 31273
T: Paddy Hayes's
R: jig
M: 6/8
K: Amajor
B|:~c3 BAF|~E3 FEC|EFA cBA|ecA ~B3|
cec BAF|E2 E FEC|EFA cec|1 BAG ~A3:|2 BAG A2||
|:E|ABc ded|c/d/ec BGE|ABc d/e/dB|e/f/ec dB/c/d|
eaf edc|d/e/fe dcB|ABc d/e/d B|edB A2:|

